Obsidian-SemiLight/actions/22s/media-album-cover-manager-amarok.svg

<svg viewBox="0 0 22 22" xmlns="http://www.w3.org/2000/svg"><path d="m2 3v16h1 17v-16h-17zm1 1h1v14h-1zm2 0h1a1 1 0 0 0 1 1 1 1 0 0 0 1-1h4 4a1 1 0 0 0 1 1 1 1 0 0 0 1-1h1v7 7h-1a1 1 0 0 0 -1-1 1 1 0 0 0 -1 1h-4-4a1 1 0 0 0 -1-1 1 1 0 0 0 -1 1h-1v-7zm0 7a7 7 0 0 0 7 7 7 7 0 0 0 7-7 7 7 0 0 0 -7-7 7 7 0 0 0 -7 7zm7-6a6 6 0 0 1 6 6 6 6 0 0 1 -6 6 6 6 0 0 1 -6-6 6 6 0 0 1 6-6zm0 5a1 1 0 0 0 -1 1 1 1 0 0 0 1 1 1 1 0 0 0 1-1 1 1 0 0 0 -1-1z" fill="#4d4d4d"/></svg>

<svg xmlns="http://www.w3.org/2000/svg" viewBox="0 0 22 22">
  <defs id="defs3051">
    <style type="text/css" id="current-color-scheme">
      .ColorScheme-Text {
        color:#4d4d4d;
      }
      </style>
  </defs>
 <path 
     style="fill:currentColor;fill-opacity:1;stroke:none" 
     d="M 2 3 L 2 19 L 3 19 L 20 19 L 20 3 L 3 3 L 2 3 z M 3 4 L 4 4 L 4 18 L 3 18 L 3 4 z M 5 4 L 6 4 A 1 1 0 0 0 7 5 A 1 1 0 0 0 8 4 L 12 4 L 16 4 A 1 1 0 0 0 17 5 A 1 1 0 0 0 18 4 L 19 4 L 19 11 L 19 18 L 18 18 A 1 1 0 0 0 17 17 A 1 1 0 0 0 16 18 L 12 18 L 8 18 A 1 1 0 0 0 7 17 A 1 1 0 0 0 6 18 L 5 18 L 5 11 L 5 4 z M 5 11 A 7 7 0 0 0 12 18 A 7 7 0 0 0 19 11 A 7 7 0 0 0 12 4 A 7 7 0 0 0 5 11 z M 12 5 A 6 6 0 0 1 18 11 A 6 6 0 0 1 12 17 A 6 6 0 0 1 6 11 A 6 6 0 0 1 12 5 z M 12 10 A 1 1 0 0 0 11 11 A 1 1 0 0 0 12 12 A 1 1 0 0 0 13 11 A 1 1 0 0 0 12 10 z "
     class="ColorScheme-Text"
     />
</svg>
